X:34
T:Miss Hamilton's Reel THO4.034
M:C|
L:1/8
Z:vmp. Peter Dunk 2010/11.from a transcription by Fynn Titford-Mock 2007
B:Thompson's Compleat Collection of 200 Favourite Country Dances Volume IV.
Q:1/2=80
K:D
f|d2 AG F>GA>B|d2 A>F E3 f|d2 AG F>GA>g|(f/g/)a ef d3:|
g|f>ed>e c>de>g|f>ed>f g3 a|f>ed>e c>de>g|(f/g/)a ef d3:|
